public/images/svg/logo-mirae.svg

<svg fill="none" height="18" viewBox="0 0 37 18" width="37" xmlns="http://www.w3.org/2000/svg"><g stroke-width=".5"><path d="m33.7116 3.25718c.7067-.306 1.3798-.646 2.0529-.952-.875 3.706-3.9039 6.426-7.1683 8.12602.875-.98602 1.9856-1.73402 2.7933-2.78802 1.0769-1.258 1.7836-2.788 2.3221-4.386z" fill="#f68026" stroke="#f68026"/><path d="m3.08654 1.013h2.1875c.16827 1.292.33654 2.55.53846 3.808.53846-1.258 1.07692-2.55 1.64904-3.808h2.25481c-.16827 2.21-.26923 4.42-.30289 6.664-.53846 0-1.11058 0-1.68269 0 .13461-1.496.26923-2.958.26923-4.454-.77404 1.428-1.27885 2.992-1.91827 4.454-.4375 0-.875 0-1.3125-.034-.13461-1.496-.37019-3.026-.53846-4.556-.40385 1.496-.63942 3.06-1.00962 4.556-.53846.034-1.07692.034-1.61538.034.50481-2.21 1.00961-4.42 1.48077-6.664zm8.00966.034c.6057-.034 1.2115-.034 1.8173-.034-.3029 2.21-.6395 4.42-.9087 6.664-.6058 0-1.2115 0-1.8173 0 .3029-2.21.6394-4.42.9087-6.63zm2.8942-.034c1.2452.068 2.5913-.203996 3.8029.306 1.3798.918.8077 3.468-.875 3.604.4375.884.875 1.836 1.3125 2.754-.5721 0-1.1443 0-1.75 0-.4375-1.054-.8414-2.142-1.3462-3.128-.2019 1.02-.3029 2.074-.4375 3.094-.5384.034-1.1106.034-1.649.034.3029-2.21.6394-4.42.9423-6.664zm7.3029 0h2.1875c.3702 2.244.7067 4.454 1.1105 6.664-.5721 0-1.1442 0-1.7163 0-.0337-.476-.101-.918-.1346-1.394-.7067 0-1.4135.034-2.1202.068-.1683.442-.3365.884-.5048 1.326-.5721 0-1.1779 0-1.75 0 1.0096-2.21 1.9519-4.454 2.9279-6.664zm4.6105 0c1.3462.034 2.726.034 4.1058 0-.0336.476-.1009.952-.1346 1.428-.8413 0-1.6827-.034-2.524-.034-.0673.408-.101.85-.1347 1.258.7404 0 1.4808 0 2.2212-.034-.0337.476-.101.952-.1346 1.394-.7741 0-1.5481-.034-2.3221-.034-.0673.442-.101.85-.1683 1.258h2.524c-.0336.476-.1009.952-.1682 1.394-1.4135.034-2.827 0-4.2404.034.3365-2.21.6394-4.454.9759-6.664zm-21.97592 9.792c.74039 0 1.44712 0 2.1875.034.13462.85.26924 1.7.40385 2.584-.63942-.17-1.27885-.34-1.91827-.476-.47115.442-.94231.884-1.41346 1.36 3.0625.272 6.15865.476 9.2212.238.2692 1.394-.6731 3.026-2.1539 3.094-1.11057.17-2.15384-.374-2.99518-1.088.26923-.442.53846-.918.80769-1.36.67307.714 2.32209 1.53 2.62499.034-1.31249-.068-2.59134-.068-3.87018-.136.10096.816.23557 1.598.40384 2.38-.57211 0-1.14423 0-1.71634 0-.06731-.578-.16827-1.122-.26924-1.7-.57211 0-1.17788 0-1.78365 0-.23558.578-.47115 1.122-.70673 1.7-.57212 0-1.17788 0-1.75 0 .97596-2.21 1.95192-4.454 2.92788-6.664z" fill="#00447b" stroke="#00447b"/><path d="m8.8105 11.013c1.04327-.884 2.625-.578 3.7356.068-.2019.408-.4039.85-.5721 1.258-.6395-.238-1.75-1.02-2.01927.068.20197.68 1.04327.884 1.54807 1.258-1.1106-.034-2.2548-.102-3.36537-.136-.16827-.884-.06731-1.904.67307-2.516zm5.3746-.2218c1.0769-.612 2.3558-.272 3.3654.272-.1683.442-.3702.918-.5721 1.36-.6058-.238-1.2116-.918-1.851-.374-.4038.816.5721 1.088 1.0433 1.462-.9423.068-1.9183.102-2.8606.17-.4375-.986-.1346-2.346.875-2.89zm4.6514.0136h4.1731c-.0673.476-.1346.952-.202 1.428-.8413 0-1.7163 0-2.5576 0 0 .238-.0674.646-.0674.884-.5721.102-1.1442.204-1.6826.306.1346-.884.2355-1.734.3365-2.618z" fill="#00447b" stroke="#00447b"/><path d="m23.4471 10.8052c1.2789.034 2.5914-.068 3.8702.102-1.3461.578-2.7259 1.054-4.1058 1.496.0674-.544.1683-1.054.2356-1.598z" fill="#004079" stroke="#004079"/><path d="m15 14.3072c4.5096-.51 9.0865-1.462 13.1923-3.502-.101.51-.202 1.02-.3029 1.564-.4375 0-.875 0-1.3125 0-.2356 1.666-.4375 3.332-.7068 4.998-.6057 0-1.2115 0-1.8173 0 .2693-1.564.4375-3.128.6731-4.692-.7404.272-1.4808.544-2.2548.782-.0673.408-.1683.85-.2692 1.258-.7741-.034-1.5481-.034-2.3221.034-.0337.408-.0673.816-.101 1.224.8413-.034 1.6827-.034 2.524-.034-.0336.34-.1346 1.054-.1682 1.428-1.4135-.034-2.827-.034-4.2068 0 .101-.986.2693-1.972.4039-2.958-.1683 0-.5721.034-.7404.068-.0673.816 0 1.836-.7404 2.414-1.2788 1.156-3.2644.646-4.4086-.442.2692-.442.5721-.884.8413-1.326.5721.408 1.1779.986 1.9519.85.5721-.068.7068-1.02.101-1.156-.7067-.034-1.4471.068-2.1875.136.0673-.17.1346-.51.2019-.68.5385.102 1.0769.102 1.6491.034z" fill="#00447b" stroke="#00447b"/><path d="m15.1682 4.07282c.101-.612.2019-1.224.2692-1.836.4712.102 1.3799-.034 1.3462.714.1683.952-.9423 1.122-1.6154 1.122zm5.9904.918c.3365-.85.6731-1.7 1.0433-2.516.1346.85.2355 1.666.3365 2.482-.4711.034-.9086.034-1.3798.034z" fill="#fff" stroke="#fff"/></g></svg>

<svg width="37" height="18" viewBox="0 0 37 18" fill="none" xmlns="http://www.w3.org/2000/svg">
<path d="M33.7116 3.25718C34.4183 2.95118 35.0914 2.61118 35.7645 2.30518C34.8895 6.01118 31.8606 8.73118 28.5962 10.4312C29.4712 9.44518 30.5818 8.69718 31.3895 7.64318C32.4664 6.38518 33.1731 4.85518 33.7116 3.25718Z" fill="#F68026" stroke="#F68026" stroke-width="0.5"/>
<path d="M3.08654 1.013C3.82692 1.013 4.56731 1.013 5.27404 1.013C5.44231 2.305 5.61058 3.563 5.8125 4.821C6.35096 3.563 6.88942 2.271 7.46154 1.013C8.20192 1.013 8.97596 1.013 9.71635 1.013C9.54808 3.223 9.44712 5.433 9.41346 7.677C8.875 7.677 8.30288 7.677 7.73077 7.677C7.86538 6.181 8 4.719 8 3.223C7.22596 4.651 6.72115 6.215 6.08173 7.677C5.64423 7.677 5.20673 7.677 4.76923 7.643C4.63462 6.147 4.39904 4.617 4.23077 3.087C3.82692 4.583 3.59135 6.147 3.22115 7.643C2.68269 7.677 2.14423 7.677 1.60577 7.677C2.11058 5.467 2.61538 3.257 3.08654 1.013ZM11.0962 1.047C11.7019 1.013 12.3077 1.013 12.9135 1.013C12.6106 3.223 12.274 5.433 12.0048 7.677C11.399 7.677 10.7933 7.677 10.1875 7.677C10.4904 5.467 10.8269 3.257 11.0962 1.047ZM13.9904 1.013C15.2356 1.081 16.5817 0.809004 17.7933 1.319C19.1731 2.237 18.601 4.787 16.9183 4.923C17.3558 5.807 17.7933 6.759 18.2308 7.677C17.6587 7.677 17.0865 7.677 16.4808 7.677C16.0433 6.623 15.6394 5.535 15.1346 4.549C14.9327 5.569 14.8317 6.623 14.6971 7.643C14.1587 7.677 13.5865 7.677 13.0481 7.677C13.351 5.467 13.6875 3.257 13.9904 1.013ZM21.2933 1.013C22.0337 1.013 22.774 1.013 23.4808 1.013C23.851 3.257 24.1875 5.467 24.5913 7.677C24.0192 7.677 23.4471 7.677 22.875 7.677C22.8413 7.201 22.774 6.759 22.7404 6.283C22.0337 6.283 21.3269 6.317 20.6202 6.351C20.4519 6.793 20.2837 7.235 20.1154 7.677C19.5433 7.677 18.9375 7.677 18.3654 7.677C19.375 5.467 20.3173 3.223 21.2933 1.013ZM25.9038 1.013C27.25 1.047 28.6298 1.047 30.0096 1.013C29.976 1.489 29.9087 1.965 29.875 2.441C29.0337 2.441 28.1923 2.407 27.351 2.407C27.2837 2.815 27.25 3.257 27.2163 3.665C27.9567 3.665 28.6971 3.665 29.4375 3.631C29.4038 4.107 29.3365 4.583 29.3029 5.025C28.5288 5.025 27.7548 4.991 26.9808 4.991C26.9135 5.433 26.8798 5.841 26.8125 6.249C27.6538 6.249 28.4952 6.249 29.3365 6.249C29.3029 6.725 29.2356 7.201 29.1683 7.643C27.7548 7.677 26.3413 7.643 24.9279 7.677C25.2644 5.467 25.5673 3.223 25.9038 1.013ZM3.92788 10.805C4.66827 10.805 5.375 10.805 6.11538 10.839C6.25 11.689 6.38462 12.539 6.51923 13.423C5.87981 13.253 5.24038 13.083 4.60096 12.947C4.12981 13.389 3.65865 13.831 3.1875 14.307C6.25 14.579 9.34615 14.783 12.4087 14.545C12.6779 15.939 11.7356 17.571 10.2548 17.639C9.14423 17.809 8.10096 17.265 7.25962 16.551C7.52885 16.109 7.79808 15.633 8.06731 15.191C8.74038 15.905 10.3894 16.721 10.6923 15.225C9.37981 15.157 8.10096 15.157 6.82212 15.089C6.92308 15.905 7.05769 16.687 7.22596 17.469C6.65385 17.469 6.08173 17.469 5.50962 17.469C5.44231 16.891 5.34135 16.347 5.24038 15.769C4.66827 15.769 4.0625 15.769 3.45673 15.769C3.22115 16.347 2.98558 16.891 2.75 17.469C2.17788 17.469 1.57212 17.469 1 17.469C1.97596 15.259 2.95192 13.015 3.92788 10.805Z" fill="#00447B" stroke="#00447B" stroke-width="0.5"/>
<path d="M8.8105 11.013C9.85377 10.129 11.4355 10.435 12.5461 11.081C12.3442 11.489 12.1422 11.931 11.974 12.339C11.3345 12.101 10.224 11.319 9.95473 12.407C10.1567 13.087 10.998 13.291 11.5028 13.665C10.3922 13.631 9.248 13.563 8.13743 13.529C7.96916 12.645 8.07012 11.625 8.8105 11.013ZM14.1851 10.7912C15.262 10.1792 16.5409 10.5192 17.5505 11.0632C17.3822 11.5052 17.1803 11.9812 16.9784 12.4232C16.3726 12.1852 15.7668 11.5052 15.1274 12.0492C14.7236 12.8652 15.6995 13.1372 16.1707 13.5112C15.2284 13.5792 14.2524 13.6132 13.3101 13.6812C12.8726 12.6952 13.1755 11.3352 14.1851 10.7912ZM18.8365 10.8048C20.2163 10.8048 21.5961 10.8048 23.0096 10.8048C22.9423 11.2808 22.875 11.7568 22.8076 12.2328C21.9663 12.2328 21.0913 12.2328 20.25 12.2328C20.25 12.4708 20.1826 12.8788 20.1826 13.1168C19.6105 13.2188 19.0384 13.3208 18.5 13.4228C18.6346 12.5388 18.7355 11.6888 18.8365 10.8048Z" fill="#00447B" stroke="#00447B" stroke-width="0.5"/>
<path d="M23.4471 10.8052C24.726 10.8392 26.0385 10.7372 27.3173 10.9072C25.9712 11.4852 24.5914 11.9612 23.2115 12.4032C23.2789 11.8592 23.3798 11.3492 23.4471 10.8052Z" fill="#004079" stroke="#004079" stroke-width="0.5"/>
<path d="M15 14.3072C19.5096 13.7972 24.0865 12.8452 28.1923 10.8052C28.0913 11.3152 27.9903 11.8252 27.8894 12.3692C27.4519 12.3692 27.0144 12.3692 26.5769 12.3692C26.3413 14.0352 26.1394 15.7012 25.8701 17.3672C25.2644 17.3672 24.6586 17.3672 24.0528 17.3672C24.3221 15.8032 24.4903 14.2392 24.7259 12.6752C23.9855 12.9472 23.2451 13.2192 22.4711 13.4572C22.4038 13.8652 22.3028 14.3072 22.2019 14.7152C21.4278 14.6812 20.6538 14.6812 19.8798 14.7492C19.8461 15.1572 19.8125 15.5652 19.7788 15.9732C20.6201 15.9392 21.4615 15.9392 22.3028 15.9392C22.2692 16.2792 22.1682 16.9932 22.1346 17.3672C20.7211 17.3332 19.3076 17.3332 17.9278 17.3672C18.0288 16.3812 18.1971 15.3952 18.3317 14.4092C18.1634 14.4092 17.7596 14.4432 17.5913 14.4772C17.524 15.2932 17.5913 16.3132 16.8509 16.8912C15.5721 18.0472 13.5865 17.5372 12.4423 16.4492C12.7115 16.0072 13.0144 15.5652 13.2836 15.1232C13.8557 15.5312 14.4615 16.1092 15.2355 15.9732C15.8076 15.9052 15.9423 14.9532 15.3365 14.8172C14.6298 14.7832 13.8894 14.8852 13.149 14.9532C13.2163 14.7832 13.2836 14.4432 13.3509 14.2732C13.8894 14.3752 14.4278 14.3752 15 14.3072Z" fill="#00447B" stroke="#00447B" stroke-width="0.5"/>
<path d="M15.1682 4.07282C15.2692 3.46082 15.3701 2.84882 15.4374 2.23682C15.9086 2.33882 16.8173 2.20282 16.7836 2.95082C16.9519 3.90282 15.8413 4.07282 15.1682 4.07282ZM21.1586 4.99082C21.4951 4.14082 21.8317 3.29082 22.2019 2.47482C22.3365 3.32482 22.4374 4.14082 22.5384 4.95682C22.0673 4.99082 21.6298 4.99082 21.1586 4.99082Z" fill="white" stroke="white" stroke-width="0.5"/>
</svg>
